packages/tokens/icons/earth/size32Px.svg

<svg viewBox="0 0 32 32" fill="none" xmlns="http://www.w3.org/2000/svg" width="1em" height="1em"><circle cx="16" cy="16" r="13.5" stroke="currentColor"/><path d="M29 18.2134C28 18.2134 26.7053 18.2583 25.4533 18.2134C23.8933 18.0534 23.3466 15.8134 24.4399 14.3067C25.5333 12.8001 26.4666 13.5734 26.5333 12.9734C26.5999 12.3734 25.7 11.84 25.5 11C25.3 10.16 27.5 9 27.5 9" stroke="currentColor"/><path d="M5 7.92198C5.9875 8.67606 6.68072 9.75127 6.96 10.962C7.05619 11.9836 7.44507 12.9558 8.08 13.762C8.68 14.3486 9.53333 14.482 10.1333 15.0953C10.7333 15.7086 11.0933 16.6953 11.8667 16.7753C12.1443 16.765 12.4117 16.6682 12.6316 16.4985C12.8515 16.3287 13.013 16.0946 13.0933 15.8286C13.2658 15.254 13.3068 14.6479 13.2133 14.0553C13.0994 13.6064 13.1564 13.1312 13.3733 12.722C13.6004 12.4837 13.9009 12.3288 14.2267 12.282C15.0457 11.9756 15.7541 11.4307 16.2603 10.7177C16.7666 10.0047 17.0474 9.15623 17.0667 8.28198C17.0934 8.16796 17.0934 8.04932 17.0667 7.93531C17.018 7.78193 16.9293 7.64427 16.8098 7.53649C16.6903 7.4287 16.5442 7.35466 16.3867 7.32198C15.4667 7.06864 14.2667 7.53531 13.72 6.68198C13.4237 6.08818 13.3678 5.65034 13.5 5C13.5333 3.73802 13 3.5 12.6316 3" stroke="currentColor"/><path d="M17.7633 21.4758L17.7559 21.4121L17.7327 21.3522C17.5705 20.9348 17.3014 20.5675 16.9525 20.287C16.6713 20.0256 16.4529 19.7039 16.3138 19.3458C16.1763 18.9915 16.12 18.611 16.149 18.2323C16.2191 17.9157 16.3996 17.634 16.6587 17.438C16.9245 17.2368 17.2548 17.1398 17.5872 17.1651C18.3866 17.2304 18.8407 17.4571 19.2499 17.7386C19.3618 17.8155 19.4826 17.9073 19.6137 18.007C19.9431 18.2573 20.3375 18.557 20.8182 18.7948L20.8386 18.8049L20.8598 18.8131C21.0964 18.9044 21.3138 19.0389 21.5011 19.2096C21.6004 19.3349 21.6745 19.4784 21.7191 19.6322C21.7657 19.7929 21.7791 19.9614 21.7585 20.1274C21.6312 20.8893 21.2702 21.5929 20.7254 22.1408L20.7244 22.1418C20.09 22.7835 19.5135 23.4799 19.0016 24.223L18.9892 24.2409L18.9785 24.2598C18.8281 24.5248 18.7007 24.8008 18.5833 25.0551L18.5793 25.0638C18.4578 25.3271 18.3464 25.5678 18.2185 25.7932L18.2131 25.8025L18.2082 25.8121C18.0067 26.2057 17.6631 26.5077 17.2472 26.657C17.0941 26.6994 16.9308 26.6852 16.7872 26.6168C16.6558 26.5543 16.5492 26.4503 16.4834 26.3216C16.4629 26.169 16.4658 26.014 16.4921 25.862C16.6842 24.8322 17.0123 23.8326 17.4678 22.8894C17.7163 22.4627 17.8201 21.9668 17.7633 21.4758Z" stroke="currentColor"/></svg>

<svg xmlns="http://www.w3.org/2000/svg" fill="none" viewBox="0 0 32 32" width="1em" height="1em"><circle cx="16" cy="16" r="13.5" stroke="currentColor"/><path stroke="currentColor" d="M29 18.213c-1 0-2.295.045-3.547 0-1.56-.16-2.106-2.4-1.013-3.906 1.093-1.507 2.027-.734 2.093-1.334.067-.6-.833-1.133-1.033-1.973-.2-.84 2-2 2-2M5 7.922a5.333 5.333 0 0 1 1.96 3.04 5.334 5.334 0 0 0 1.12 2.8c.6.587 1.453.72 2.053 1.333.6.614.96 1.6 1.734 1.68a1.333 1.333 0 0 0 1.226-.946 4 4 0 0 0 .12-1.774 1.867 1.867 0 0 1 .16-1.333 1.47 1.47 0 0 1 .854-.44 4.373 4.373 0 0 0 2.84-4 .76.76 0 0 0 0-.347.907.907 0 0 0-.68-.613c-.92-.253-2.12.213-2.667-.64-.296-.594-.352-1.032-.22-1.682.033-1.262-.5-1.5-.868-2m5.131 18.476-.007-.064-.023-.06a2.554 2.554 0 0 0-.78-1.065 2.541 2.541 0 0 1-.804-2.055 1.366 1.366 0 0 1 1.438-1.067c.8.065 1.254.292 1.663.574.112.076.233.168.364.268.33.25.723.55 1.204.788l.02.01.022.008c.236.091.454.226.641.397a1.234 1.234 0 0 1 .258.917 3.727 3.727 0 0 1-1.034 2.014 15.33 15.33 0 0 0-1.723 2.082l-.013.018-.01.019c-.15.265-.278.54-.396.795l-.004.009a9.789 9.789 0 0 1-.36.73l-.006.008-.005.01a1.74 1.74 0 0 1-.96.845.66.66 0 0 1-.765-.335 1.514 1.514 0 0 1 .01-.46c.191-1.03.52-2.03.975-2.973.248-.426.352-.922.295-1.413Z"/></svg>
